symbolic/22x22/apps/tresorit.svg

<svg xmlns="http://www.w3.org/2000/svg" width="22" height="22" version="1">
 <path style="fill:#4f4f4f" d="M 11.053853,1.0011744 A 2.282762,2.2739121 0 0 0 9.8583732,1.3045194 L 3.1414851,5.167455 a 2.282762,2.2739121 0 0 0 -1.141481,1.9694672 l 0,7.7263708 a 2.282762,2.2739121 0 0 0 1.141381,1.969267 l 6.7168881,3.863136 a 2.282762,2.2739121 0 0 0 2.2827618,0 l 6.716888,-3.863136 a 2.282762,2.2739121 0 0 0 1.141481,-1.969466 l 0,-7.7263718 A 2.282762,2.2739121 0 0 0 18.857923,5.167255 L 12.141035,1.3043194 A 2.282762,2.2739121 0 0 0 11.053553,1.0009745 Z"/>
 <path style="opacity:0.1;fill:#ffffff" d="m 10.772319,1.0132195 a 2.282762,2.2739121 0 0 0 -0.03614,0.00488 2.282762,2.2739121 0 0 1 0.0459,-0.00488 2.282762,2.2739121 0 0 0 -0.0098,0 z m -0.208005,0.030273 a 2.282762,2.2739121 0 0 0 -0.08105,0.018554 2.282762,2.2739121 0 0 1 0.08105,-0.018554 z m -0.218746,0.05371 a 2.282762,2.2739121 0 0 0 -0.07422,0.024414 2.282762,2.2739121 0 0 1 0.07422,-0.024414 z m -0.221676,0.078124 a 2.282762,2.2739121 0 0 0 -0.08398,0.038085 2.282762,2.2739121 0 0 1 0.08398,-0.038085 z m -0.1982388,0.092772 a 2.282762,2.2739121 0 0 0 -0.06738,0.036132 2.282762,2.2739121 0 0 1 0.06738,-0.036132 z M 3.1415867,5.167447 A 2.282762,2.2739121 0 0 0 2.6083925,5.592245 2.282762,2.2739121 0 0 1 3.1415867,5.167447 Z M 2.6083925,5.592245 A 2.282762,2.2739121 0 0 0 2.00684,6.9906592 2.282762,2.2739121 0 0 1 2.6083925,5.592245 Z M 2.00684,6.9906592 A 2.282762,2.2739121 0 0 0 2,7.1371412 l 0,7.7264338 a 2.282762,2.2739121 0 0 0 1.1415826,1.968717 l 6.7166856,3.863217 a 2.282762,2.2739121 0 0 0 1.1415818,0.30273 l 0,-7.999867 A 2.282762,2.2739121 0 0 1 9.8582722,12.695643 L 3.1415867,8.832425 A 2.282762,2.2739121 0 0 1 2.00684,6.9906592 Z"/>
 <path style="opacity:0.1;fill:#ffffff" d="M 11.053353,1.0015244 A 2.282762,2.2739121 0 0 0 9.8583732,1.3042194 L 3.1414851,5.167455 a 2.282762,2.2739121 0 0 0 -1.141481,1.9694672 l 0,0.4999917 A 2.282762,2.2739121 0 0 1 3.1415851,5.6674467 L 9.8584732,1.8042111 a 2.282762,2.2739121 0 0 1 1.1952798,-0.30273 2.282762,2.2739121 0 0 1 1.087882,0.30273 l 6.716888,3.8632356 a 2.282762,2.2739121 0 0 1 1.141481,1.9694672 l 0,-0.4999917 A 2.282762,2.2739121 0 0 0 18.858523,5.167455 L 12.141635,1.3042194 a 2.282762,2.2739121 0 0 0 -1.087982,-0.302695 z"/>
 <path style="opacity:0.2" d="m 2.0000041,14.863293 0,0.499992 a 2.282762,2.2739121 0 0 0 1.141581,1.968718 l 6.7168881,3.863236 a 2.282762,2.2739121 0 0 0 2.2831618,0 l 6.716888,-3.863436 a 2.282762,2.2739121 0 0 0 1.141481,-1.968967 l 0,-0.499992 a 2.282762,2.2739121 0 0 1 -1.141581,1.968717 l -6.716888,3.863236 a 2.282762,2.2739121 0 0 1 -2.2831618,0 L 3.1414851,16.831361 a 2.282762,2.2739121 0 0 1 -1.141481,-1.968967 z"/>
 <path style="opacity:0.2;fill:#ffffff" d="m 11.053564,1.0005245 0,9.749e-4 A 2.282762,2.2739121 0 0 0 9.8582722,1.3042303 L 3.1415867,5.167447 A 2.282762,2.2739121 0 0 0 2.00684,6.9906592 2.282762,2.2739121 0 0 0 3.1415867,8.832425 l 6.7166855,3.863218 a 2.282762,2.2739121 0 0 0 2.2831638,0 L 18.858122,8.832425 A 2.282762,2.2739121 0 0 0 19.992868,7.0082369 2.282762,2.2739121 0 0 0 18.858122,5.167447 L 12.141436,1.3042303 A 2.282762,2.2739121 0 0 0 11.053564,1.0005245 Z"/>
 <path style="opacity:0.2" d="m 14.051561,2.902813 -12.0515569,6.9578915 0,5.5028375 a 2.282762,2.2739121 0 0 0 0.016601,0.260738 L 19.046595,5.7924131 A 2.282762,2.2739121 0 0 0 18.858122,5.6674152 L 14.051561,2.902813 Z"/>
 <path style="fill:#00cbec" d="m 14.051561,2.4028448 -12.0515569,6.9578917 0,5.5028385 a 2.282762,2.2739121 0 0 0 0.016601,0.260738 L 19.046595,5.292445 A 2.282762,2.2739121 0 0 0 18.858122,5.167447 L 14.051561,2.4028448 Z"/>
 <path style="fill:#00a7c2" d="m 3.0351431,8.7630906 -1.035139,0.5976459 0,5.5028385 a 2.282762,2.2739121 0 0 0 0.015625,0.252925 2.282762,2.2739121 0 0 0 9.75e-4,0.0078 L 8.0370131,11.648785 3.1415867,8.832425 A 2.282762,2.2739121 0 0 1 3.0351431,8.7630906 Z"/>
</svg>

<svg xmlns="http://www.w3.org/2000/svg" width="22" height="22" version="1"><path style="fill:#4f4f4f" d="M11.054 1.001a2.283 2.274 0 0 0-1.196.304L3.141 5.167A2.283 2.274 0 0 0 2 7.137v7.726a2.283 2.274 0 0 0 1.141 1.97l6.717 3.863a2.283 2.274 0 0 0 2.283 0l6.717-3.863a2.283 2.274 0 0 0 1.141-1.97V7.137a2.283 2.274 0 0 0-1.141-1.97L12.14 1.304a2.283 2.274 0 0 0-1.087-.303z"/><path style="opacity:.1;fill:#fff" d="M10.772 1.013a2.283 2.274 0 0 0-.036.005 2.283 2.274 0 0 1 .046-.005 2.283 2.274 0 0 0-.01 0zm-.208.03a2.283 2.274 0 0 0-.08.019 2.283 2.274 0 0 1 .08-.019zm-.218.054a2.283 2.274 0 0 0-.075.025 2.283 2.274 0 0 1 .075-.025zm-.222.078a2.283 2.274 0 0 0-.084.038 2.283 2.274 0 0 1 .084-.038zm-.198.093a2.283 2.274 0 0 0-.068.036 2.283 2.274 0 0 1 .068-.036zm-6.784 3.9a2.283 2.274 0 0 0-.534.424 2.283 2.274 0 0 1 .534-.425zm-.534.424a2.283 2.274 0 0 0-.601 1.399 2.283 2.274 0 0 1 .601-1.399zm-.601 1.399A2.283 2.274 0 0 0 2 7.137v7.727a2.283 2.274 0 0 0 1.142 1.968l6.716 3.864a2.283 2.274 0 0 0 1.142.302v-8a2.283 2.274 0 0 1-1.142-.302L3.142 8.832a2.283 2.274 0 0 1-1.135-1.841z"/><path style="opacity:.1;fill:#fff" d="M11.053 1.002a2.283 2.274 0 0 0-1.195.302L3.141 5.167A2.283 2.274 0 0 0 2 7.137v.5a2.283 2.274 0 0 1 1.142-1.97l6.716-3.863a2.283 2.274 0 0 1 1.196-.303 2.283 2.274 0 0 1 1.088.303l6.717 3.863A2.283 2.274 0 0 1 20 7.637v-.5a2.283 2.274 0 0 0-1.141-1.97l-6.717-3.863a2.283 2.274 0 0 0-1.088-.302z"/><path style="opacity:.2" d="M2 14.863v.5a2.283 2.274 0 0 0 1.142 1.969l6.716 3.863a2.283 2.274 0 0 0 2.284 0l6.717-3.863A2.283 2.274 0 0 0 20 15.362v-.5a2.283 2.274 0 0 1-1.142 1.97l-6.716 3.863a2.283 2.274 0 0 1-2.284 0L3.141 16.83A2.283 2.274 0 0 1 2 14.862z"/><path style="opacity:.2;fill:#fff" d="M11.054 1v.001a2.283 2.274 0 0 0-1.196.303L3.142 5.167a2.283 2.274 0 0 0-1.135 1.824 2.283 2.274 0 0 0 1.135 1.841l6.716 3.864a2.283 2.274 0 0 0 2.283 0l6.717-3.864a2.283 2.274 0 0 0 1.135-1.824 2.283 2.274 0 0 0-1.135-1.84l-6.717-3.864a2.283 2.274 0 0 0-1.087-.303z"/><path style="opacity:.2" d="M14.052 2.903 2 9.86v5.503a2.283 2.274 0 0 0 .017.26l17.03-9.832a2.283 2.274 0 0 0-.189-.125l-4.806-2.764z"/><path style="fill:#00cbec" d="M14.052 2.403 2 9.36v5.503a2.283 2.274 0 0 0 .017.26l17.03-9.832a2.283 2.274 0 0 0-.189-.125l-4.806-2.764z"/><path style="fill:#00a7c2" d="M3.035 8.763 2 9.361v5.503a2.283 2.274 0 0 0 .016.253 2.283 2.274 0 0 0 0 .007l6.021-3.475-4.895-2.817a2.283 2.274 0 0 1-.107-.069z"/></svg>
